src/assets/Apple.svg

<svg width="257" height="77" viewBox="0 0 257 77" fill="none" xmlns="http://www.w3.org/2000/svg">
<path d="M255.194 67.9195C255.194 71.9902 251.943 75.3094 247.885 75.3094H8.97425C4.94852 75.3094 1.66602 72.0215 1.66602 67.9195V9.11265C1.66602 5.04189 4.94852 1.72266 8.97425 1.72266H247.885C251.912 1.72266 255.194 5.04189 255.194 9.11265V67.9195Z" fill="white"/>
<path d="M247.923 77H9.01144C4.0567 77 0 72.9292 0 67.9191V9.11224C0 4.10208 4.02574 0 9.01144 0H247.923C252.877 0 256.935 4.07076 256.935 9.11224V67.9191C256.903 72.9292 252.877 77 247.923 77Z" fill="white"/>
<path d="M255.194 67.9195C255.194 71.9902 251.943 75.3094 247.885 75.3094H8.97425C4.94852 75.3094 1.66602 72.0215 1.66602 67.9195V9.11265C1.66602 5.04189 4.94852 1.72266 8.97425 1.72266H247.885C251.912 1.72266 255.194 5.04189 255.194 9.11265V67.9195Z" fill="#242424"/>
<path d="M57.3564 38.1084C57.2945 31.9082 62.3731 28.8708 62.6208 28.7456C59.7409 24.5183 55.2816 23.9233 53.7022 23.892C49.9553 23.4848 46.3322 26.1466 44.4121 26.1466C42.4613 26.1466 39.5194 23.9233 36.3607 23.9859C32.273 24.0486 28.4641 26.4284 26.3892 30.1547C22.0848 37.7012 25.3055 48.8176 29.424 54.9237C31.4989 57.9298 33.9143 61.2491 37.073 61.1238C40.1696 60.9986 41.3154 59.1198 45.0624 59.1198C48.7476 59.1198 49.8623 61.1238 53.083 61.0299C56.3964 60.9672 58.5021 58.0237 60.484 55.0177C62.8686 51.6044 63.8286 48.2226 63.8594 48.0348C63.7976 48.0034 57.4184 45.5297 57.3564 38.1084Z" fill="white"/>
<path d="M51.2557 19.8519C52.9278 17.7539 54.0736 14.873 53.733 11.9922C51.3176 12.0861 48.3138 13.6831 46.5797 15.7498C45.0313 17.5659 43.6688 20.5407 44.0403 23.3277C46.7654 23.5156 49.5214 21.9186 51.2557 19.8519Z" fill="white"/>
<path d="M102.187 60.6535H97.8517L95.4982 53.1383H87.23L84.9694 60.6535H80.7578L88.9021 35.0391H93.9498L102.187 60.6535ZM94.7549 49.9756L92.6183 43.2745C92.4015 42.5856 91.9679 40.9885 91.3487 38.4522H91.2867C91.0389 39.5482 90.6364 41.1452 90.0789 43.2745L87.9731 49.9756H94.7549Z" fill="white"/>
<path d="M123.126 51.1987C123.126 54.33 122.29 56.8351 120.587 58.6514C119.07 60.2796 117.181 61.0938 114.951 61.0938C112.536 61.0938 110.802 60.2169 109.749 58.4634V68.1706H105.692V48.2865C105.692 46.3138 105.63 44.2784 105.537 42.2117H109.098L109.315 45.1552H109.377C110.74 42.9632 112.783 41.8359 115.539 41.8359C117.707 41.8359 119.503 42.6814 120.928 44.435C122.383 46.1259 123.126 48.3804 123.126 51.1987ZM118.977 51.3552C118.977 49.5703 118.574 48.0673 117.769 46.9087C116.902 45.6875 115.725 45.0925 114.239 45.0925C113.248 45.0925 112.319 45.4369 111.514 46.0946C110.709 46.7835 110.151 47.6603 109.903 48.725C109.78 49.2259 109.718 49.633 109.718 49.9775V53.0462C109.718 54.3927 110.12 55.5199 110.925 56.4593C111.731 57.3987 112.814 57.8371 114.115 57.8371C115.632 57.8371 116.84 57.2421 117.676 56.0523C118.543 54.8624 118.977 53.2967 118.977 51.3552Z" fill="white"/>
<path d="M144.126 51.1987C144.126 54.33 143.29 56.8351 141.587 58.6514C140.07 60.2796 138.181 61.0938 135.951 61.0938C133.536 61.0938 131.802 60.2169 130.749 58.4634V68.1706H126.692V48.2865C126.692 46.3138 126.63 44.2784 126.537 42.2117H130.098L130.315 45.1552H130.377C131.74 42.9632 133.783 41.8359 136.54 41.8359C138.707 41.8359 140.503 42.6814 141.927 44.435C143.415 46.1259 144.126 48.3804 144.126 51.1987ZM140.007 51.3552C140.007 49.5703 139.605 48.0673 138.8 46.9087C137.933 45.6875 136.756 45.0925 135.27 45.0925C134.279 45.0925 133.35 45.4369 132.545 46.0946C131.74 46.7835 131.213 47.6603 130.935 48.725C130.811 49.2259 130.749 49.633 130.749 49.9775V53.0462C130.749 54.3927 131.151 55.5199 131.956 56.4593C132.762 57.3674 133.845 57.8371 135.146 57.8371C136.663 57.8371 137.871 57.2421 138.707 56.0523C139.575 54.8624 140.007 53.2967 140.007 51.3552Z" fill="white"/>
<path d="M167.626 53.4834C167.626 55.6752 166.883 57.4288 165.366 58.8067C163.725 60.3097 161.402 61.0613 158.46 61.0613C155.735 61.0613 153.536 60.5288 151.895 59.4642L152.825 56.051C154.59 57.1157 156.571 57.6479 158.677 57.6479C160.195 57.6479 161.402 57.3035 162.238 56.6146C163.075 55.9258 163.508 54.9864 163.508 53.8278C163.508 52.7945 163.167 51.9176 162.455 51.1974C161.742 50.4772 160.597 49.8197 158.956 49.2247C154.527 47.5651 152.298 45.0913 152.298 41.8973C152.298 39.7994 153.072 38.077 154.651 36.7306C156.231 35.3841 158.306 34.7266 160.876 34.7266C163.167 34.7266 165.118 35.1336 166.636 35.9477L165.613 39.2983C164.19 38.5154 162.548 38.1084 160.752 38.1084C159.327 38.1084 158.181 38.4528 157.407 39.173C156.726 39.7994 156.386 40.5821 156.386 41.4902C156.386 42.4923 156.788 43.3378 157.562 43.9953C158.243 44.5903 159.451 45.2478 161.247 45.968C163.415 46.8449 165.025 47.8782 166.047 49.0681C167.131 50.2267 167.626 51.6985 167.626 53.4834Z" fill="white"/>
<path d="M181.083 45.2792H176.593V54.2349C176.593 56.5208 177.367 57.648 178.947 57.648C179.658 57.648 180.278 57.5855 180.743 57.4602L180.867 60.5915C180.061 60.9046 179.008 61.0612 177.708 61.0612C176.097 61.0612 174.859 60.5602 173.961 59.5895C173.063 58.5874 172.598 56.9278 172.598 54.6107V45.2792H169.936V42.2105H172.598V38.8286L176.593 37.6074V42.2105H181.083C181.083 42.1792 181.083 45.2792 181.083 45.2792Z" fill="white"/>
<path d="M201.25 51.2926C201.25 54.1422 200.445 56.4593 198.835 58.2756C197.163 60.1544 194.934 61.0938 192.147 61.0938C189.453 61.0938 187.315 60.1857 185.737 58.4008C184.157 56.616 183.352 54.33 183.352 51.6057C183.352 48.7562 184.188 46.4077 185.829 44.5602C187.47 42.744 189.7 41.8359 192.457 41.8359C195.15 41.8359 197.287 42.744 198.928 44.5289C200.445 46.2512 201.25 48.5056 201.25 51.2926ZM197.039 51.3866C197.039 49.6956 196.668 48.2553 195.955 47.034C195.119 45.5622 193.88 44.842 192.302 44.842C190.66 44.842 189.422 45.5622 188.585 47.034C187.873 48.2553 187.502 49.7269 187.502 51.4805C187.502 53.1714 187.873 54.6431 188.585 55.833C189.453 57.3048 190.692 58.025 192.27 58.025C193.819 58.025 195.027 57.2735 195.924 55.8018C196.637 54.518 197.039 53.0775 197.039 51.3866Z" fill="white"/>
<path d="M214.447 45.8128C214.045 45.7502 213.611 45.6876 213.177 45.6876C211.753 45.6876 210.638 46.22 209.865 47.316C209.183 48.2866 208.842 49.5079 208.842 50.9797V60.6869H204.786V48.0362C204.786 45.9069 204.755 43.9654 204.662 42.2118H208.192L208.347 45.7503H208.471C208.905 44.529 209.586 43.5584 210.515 42.8068C211.412 42.1491 212.403 41.8047 213.456 41.8047C213.828 41.8047 214.168 41.836 214.478 41.8674L214.447 45.8128Z" fill="white"/>
<path d="M232.595 50.5394C232.595 51.2596 232.533 51.8859 232.44 52.3868H220.27C220.302 54.2031 220.92 55.6122 222.035 56.5829C223.058 57.4284 224.389 57.8668 226.03 57.8668C227.827 57.8668 229.468 57.5849 230.954 56.9899L231.604 59.8395C229.87 60.591 227.827 60.9668 225.473 60.9668C222.655 60.9668 220.425 60.1213 218.784 58.4304C217.174 56.7394 216.369 54.4849 216.369 51.6354C216.369 48.8484 217.112 46.5312 218.629 44.6838C220.208 42.7109 222.345 41.709 225.008 41.709C227.64 41.709 229.623 42.7109 230.985 44.6838C232.069 46.3121 232.595 48.2534 232.595 50.5394ZM228.724 49.4747C228.755 48.2534 228.477 47.2201 227.95 46.3121C227.238 45.1535 226.154 44.5897 224.729 44.5897C223.398 44.5897 222.314 45.1535 221.509 46.2494C220.828 47.1262 220.425 48.1909 220.302 49.4434L228.724 49.4747Z" fill="white"/>
<path d="M92.8058 25.8654H90.6692L89.4924 22.1704H85.4356L84.3209 25.8654H82.2461L86.2409 13.2773H88.7181L92.8058 25.8654ZM89.1826 20.636L88.1298 17.3481C88.0059 17.0037 87.8201 16.2209 87.5105 14.9682H87.4795C87.3556 15.5006 87.1699 16.2834 86.8911 17.3481L85.8692 20.636H89.1826Z" fill="white"/>
<path d="M102.843 16.7852L99.4367 25.8662H97.4857L94.2031 16.7852H96.3399L97.8883 21.5762C98.136 22.3903 98.3528 23.1419 98.5385 23.8621H98.6005C98.7553 23.2045 98.9722 22.4529 99.2508 21.5762L100.768 16.7852C100.737 16.7852 102.843 16.7852 102.843 16.7852Z" fill="white"/>
<path d="M110.086 25.8644L109.931 24.8311H109.869C109.25 25.6766 108.382 26.0837 107.237 26.0837C105.626 26.0837 104.48 24.9563 104.48 23.422C104.48 21.1674 106.4 20.0088 109.714 20.0088V19.8522C109.714 18.6623 109.095 18.0673 107.856 18.0673C106.958 18.0673 106.184 18.2866 105.502 18.7563L105.1 17.4411C105.936 16.9087 106.958 16.6582 108.197 16.6582C110.55 16.6582 111.727 17.9108 111.727 20.4159V23.7664C111.727 24.6745 111.758 25.3947 111.851 25.9271L110.086 25.8644ZM109.807 21.3553C107.577 21.3553 106.493 21.8876 106.493 23.1714C106.493 24.1108 107.082 24.5805 107.856 24.5805C108.878 24.5805 109.807 23.7978 109.807 22.7331C109.807 22.7644 109.807 21.3553 109.807 21.3553Z" fill="white"/>
<path d="M116.187 15.2822C115.536 15.2822 115.01 14.7499 115.01 14.0611C115.01 13.3721 115.536 12.8711 116.217 12.8711C116.899 12.8711 117.456 13.3721 117.425 14.0611C117.456 14.8125 116.93 15.2822 116.187 15.2822ZM117.208 25.8663H115.227V16.7852H117.208V25.8663Z" fill="white"/>
<path d="M122.748 25.8647H120.766V12.6191H122.748V25.8647Z" fill="white"/>
<path d="M131.234 25.8644L131.079 24.8311H131.017C130.398 25.6766 129.531 26.0837 128.385 26.0837C126.775 26.0837 125.629 24.9563 125.629 23.422C125.629 21.1674 127.549 20.0088 130.862 20.0088V19.8522C130.862 18.6623 130.243 18.0673 129.004 18.0673C128.106 18.0673 127.332 18.2866 126.651 18.7563L126.248 17.4411C127.084 16.9087 128.106 16.6582 129.345 16.6582C131.698 16.6582 132.875 17.9108 132.875 20.4159V23.7664C132.875 24.6745 132.906 25.3947 132.999 25.9271H131.234V25.8644ZM130.955 21.3553C128.726 21.3553 127.642 21.8876 127.642 23.1714C127.642 24.1108 128.23 24.5805 129.004 24.5805C130.026 24.5805 130.955 23.7978 130.955 22.7331V21.3553Z" fill="white"/>
<path d="M140.985 26.0858C139.715 26.0858 138.755 25.5536 138.167 24.4889H138.136L138.012 25.898H136.309C136.371 25.1778 136.371 24.3323 136.371 23.4555V12.6523H138.384V18.1322H138.415C139.002 17.1302 139.962 16.6291 141.264 16.6291C143.431 16.6291 144.949 18.5079 144.949 21.2322C144.949 24.0192 143.276 26.0858 140.985 26.0858ZM140.582 18.1949C139.436 18.1949 138.384 19.1968 138.384 20.6059V22.203C138.384 23.4555 139.312 24.4889 140.551 24.4889C142.037 24.4889 142.936 23.2676 142.936 21.2949C142.936 19.4473 142.007 18.1949 140.582 18.1949Z" fill="white"/>
<path d="M149.906 25.8647H147.924V12.6191H149.906V25.8647Z" fill="white"/>
<path d="M160.789 21.8251H154.811C154.843 23.5473 155.989 24.518 157.63 24.518C158.528 24.518 159.333 24.3614 160.045 24.0797L160.355 25.4888C159.519 25.8646 158.498 26.0524 157.351 26.0524C154.532 26.0524 152.893 24.2675 152.893 21.4807C152.893 18.6937 154.595 16.5957 157.134 16.5957C159.426 16.5957 160.881 18.318 160.881 20.9171C160.85 21.2615 160.85 21.5746 160.789 21.8251ZM158.961 20.3847C158.961 18.9756 158.249 18.0048 156.98 18.0048C155.834 18.0048 154.936 19.0069 154.811 20.3847H158.961Z" fill="white"/>
<path d="M172.887 26.0856C170.255 26.0856 168.551 24.1128 168.551 21.4198C168.551 18.6016 170.286 16.6289 173.042 16.6289C175.612 16.6289 177.377 18.5077 177.377 21.2946C177.346 24.1128 175.55 26.0856 172.887 26.0856ZM172.948 18.0694C171.493 18.0694 170.596 19.4471 170.596 21.3259C170.596 23.2047 171.525 24.5512 172.948 24.5512C174.373 24.5512 175.302 23.0794 175.302 21.2946C175.271 19.4785 174.342 18.0694 172.948 18.0694Z" fill="white"/>
<path d="M188.062 25.8646H186.08V20.6352C186.08 19.0383 185.46 18.224 184.284 18.224C183.107 18.224 182.27 19.2574 182.27 20.4474V25.8646H180.289V19.3827C180.289 18.5686 180.258 17.7231 180.227 16.7837H181.992L182.085 18.1928H182.147C182.674 17.222 183.788 16.5957 184.997 16.5957C186.885 16.5957 188.124 18.0675 188.124 20.416L188.062 25.8646Z" fill="white"/>
<path d="M201.128 18.3182H198.929V22.7334C198.929 23.8607 199.302 24.4243 200.107 24.4243C200.446 24.4243 200.757 24.393 201.004 24.3304L201.067 25.8648C200.664 26.0214 200.168 26.084 199.518 26.084C197.939 26.084 197.009 25.2073 197.009 22.9213V18.3496H195.709V16.7839H197.009V15.1243L198.96 14.5293V16.7839H201.159V18.3182H201.128Z" fill="white"/>
<path d="M211.691 25.8647H209.679V20.698C209.679 19.0698 209.06 18.2556 207.882 18.2556C206.861 18.2556 205.901 18.9759 205.901 20.4162V25.8647H203.889V12.6191H205.901V18.0677H205.932C206.551 17.0657 207.48 16.596 208.626 16.596C210.515 16.596 211.691 18.099 211.691 20.4789V25.8647Z" fill="white"/>
<path d="M221.916 21.8251H215.907C215.938 23.5473 217.085 24.518 218.726 24.518C219.623 24.518 220.428 24.3614 221.141 24.0797L221.451 25.4888C220.615 25.8646 219.593 26.0524 218.447 26.0524C215.63 26.0524 213.988 24.2675 213.988 21.4807C213.988 18.6937 215.691 16.5957 218.229 16.5957C220.522 16.5957 221.977 18.318 221.977 20.9171C221.977 21.2615 221.946 21.5746 221.916 21.8251ZM220.088 20.3847C220.088 18.9756 219.376 18.0048 218.106 18.0048C216.961 18.0048 216.062 19.0069 215.938 20.3847H220.088Z" fill="white"/>
</svg>

<svg xmlns="http://www.w3.org/2000/svg" width="257" height="77" fill="none" viewBox="0 0 257 77"><path fill="#fff" d="M255.194 67.92c0 4.07-3.251 7.39-7.309 7.39H8.975c-4.026 0-7.309-3.288-7.309-7.39V9.112c0-4.071 3.283-7.39 7.308-7.39h238.911c4.027 0 7.309 3.319 7.309 7.39z"/><path fill="#fff" d="M247.923 77H9.011C4.057 77 0 72.93 0 67.92V9.111C0 4.102 4.026 0 9.011 0h238.912c4.954 0 9.012 4.07 9.012 9.112V67.92c-.032 5.01-4.058 9.081-9.012 9.081"/><path fill="#242424" d="M255.194 67.92c0 4.07-3.251 7.39-7.309 7.39H8.975c-4.026 0-7.309-3.288-7.309-7.39V9.112c0-4.071 3.283-7.39 7.308-7.39h238.911c4.027 0 7.309 3.319 7.309 7.39z"/><path fill="#fff" d="M57.356 38.108c-.062-6.2 5.017-9.237 5.265-9.362-2.88-4.228-7.34-4.823-8.919-4.854-3.747-.407-7.37 2.255-9.29 2.255-1.95 0-4.893-2.224-8.051-2.161-4.088.063-7.897 2.442-9.972 6.169-4.304 7.546-1.084 18.663 3.035 24.769 2.075 3.006 4.49 6.325 7.649 6.2 3.097-.125 4.242-2.004 7.99-2.004 3.685 0 4.8 2.004 8.02 1.91 3.313-.063 5.42-3.006 7.401-6.012 2.385-3.414 3.345-6.795 3.375-6.983-.061-.032-6.44-2.505-6.503-9.927M51.256 19.852c1.672-2.098 2.818-4.979 2.477-7.86-2.415.094-5.42 1.691-7.153 3.758-1.549 1.816-2.911 4.79-2.54 7.578 2.725.188 5.481-1.41 7.216-3.476M102.187 60.654h-4.335l-2.354-7.516H87.23l-2.26 7.516h-4.212l8.144-25.615h5.048zm-7.432-10.678-2.137-6.701c-.216-.69-.65-2.286-1.27-4.823h-.061c-.248 1.096-.65 2.693-1.208 4.823l-2.106 6.7zM123.126 51.199c0 3.131-.836 5.636-2.539 7.452-1.517 1.629-3.406 2.443-5.636 2.443q-3.623 0-5.202-2.63v9.707h-4.057V48.286c0-1.972-.062-4.008-.155-6.074h3.561l.217 2.943h.062c1.363-2.192 3.406-3.32 6.162-3.32 2.168 0 3.964.846 5.389 2.6 1.455 1.69 2.198 3.945 2.198 6.764m-4.149.156c0-1.785-.403-3.288-1.208-4.446-.867-1.221-2.044-1.816-3.53-1.816-.991 0-1.92.344-2.725 1.002a4.85 4.85 0 0 0-1.611 2.63c-.123.5-.185.908-.185 1.252v3.07c0 1.346.402 2.473 1.207 3.412.806.94 1.889 1.378 3.19 1.378 1.517 0 2.725-.595 3.561-1.785q1.3-1.785 1.301-4.697M144.126 51.199c0 3.131-.836 5.636-2.539 7.452-1.517 1.629-3.406 2.443-5.636 2.443q-3.623 0-5.202-2.63v9.707h-4.057V48.286c0-1.972-.062-4.008-.155-6.074h3.561l.217 2.943h.062c1.363-2.192 3.406-3.32 6.163-3.32 2.167 0 3.963.846 5.387 2.6 1.488 1.69 2.199 3.945 2.199 6.764m-4.119.156c0-1.785-.402-3.288-1.207-4.446-.867-1.221-2.044-1.816-3.53-1.816-.991 0-1.92.344-2.725 1.002-.805.688-1.332 1.565-1.61 2.63-.124.5-.186.908-.186 1.252v3.07c0 1.346.402 2.473 1.207 3.412.806.908 1.889 1.378 3.19 1.378 1.517 0 2.725-.595 3.561-1.785q1.301-1.785 1.3-4.697M167.626 53.483c0 2.192-.743 3.946-2.26 5.324-1.641 1.503-3.964 2.254-6.906 2.254-2.725 0-4.924-.532-6.565-1.597l.93-3.413c1.765 1.065 3.746 1.597 5.852 1.597 1.518 0 2.725-.345 3.561-1.033.837-.69 1.27-1.629 1.27-2.787 0-1.034-.341-1.91-1.053-2.63-.713-.72-1.858-1.378-3.499-1.973-4.429-1.66-6.658-4.134-6.658-7.328 0-2.098.774-3.82 2.353-5.166s3.655-2.004 6.225-2.004c2.291 0 4.242.407 5.76 1.22l-1.023 3.351c-1.423-.783-3.065-1.19-4.861-1.19-1.425 0-2.571.345-3.345 1.065a3.04 3.04 0 0 0-1.021 2.317c0 1.002.402 1.848 1.176 2.505.681.595 1.889 1.253 3.685 1.973 2.168.877 3.778 1.91 4.8 3.1 1.084 1.159 1.579 2.63 1.579 4.415M181.083 45.28h-4.49v8.955c0 2.286.774 3.413 2.354 3.413.711 0 1.331-.062 1.796-.188l.124 3.132q-1.209.47-3.159.47c-1.611 0-2.849-.502-3.747-1.472-.898-1.003-1.363-2.662-1.363-4.98v-9.33h-2.662v-3.07h2.662V38.83l3.995-1.222v4.604h4.49zM201.25 51.293c0 2.85-.805 5.166-2.415 6.983q-2.508 2.818-6.688 2.818c-2.694 0-4.832-.908-6.41-2.693-1.58-1.785-2.385-4.071-2.385-6.795 0-2.85.836-5.198 2.477-7.046 1.641-1.816 3.871-2.724 6.628-2.724 2.693 0 4.83.908 6.471 2.693 1.517 1.722 2.322 3.977 2.322 6.764m-4.211.094c0-1.691-.371-3.132-1.084-4.353-.836-1.472-2.075-2.192-3.653-2.192-1.642 0-2.88.72-3.717 2.192-.712 1.221-1.083 2.693-1.083 4.447 0 1.69.371 3.162 1.083 4.352.868 1.472 2.107 2.192 3.685 2.192 1.549 0 2.757-.751 3.654-2.223.713-1.284 1.115-2.724 1.115-4.415M214.447 45.813c-.402-.063-.836-.125-1.27-.125-1.424 0-2.539.532-3.312 1.628q-1.023 1.456-1.023 3.664v9.707h-4.056v-12.65c0-2.13-.031-4.072-.124-5.825h3.53l.155 3.538h.124c.434-1.221 1.115-2.192 2.044-2.943.897-.658 1.888-1.002 2.941-1.002.372 0 .712.031 1.022.062zM232.595 50.54c0 .72-.062 1.346-.155 1.847h-12.17c.032 1.816.65 3.225 1.765 4.196 1.023.845 2.354 1.284 3.995 1.284 1.797 0 3.438-.282 4.924-.877l.65 2.85q-2.6 1.127-6.131 1.127-4.227 0-6.689-2.537c-1.61-1.69-2.415-3.945-2.415-6.795 0-2.787.743-5.104 2.26-6.951 1.579-1.973 3.716-2.975 6.379-2.975 2.632 0 4.615 1.002 5.977 2.975 1.084 1.628 1.61 3.57 1.61 5.855m-3.871-1.065c.031-1.222-.247-2.255-.774-3.163-.712-1.158-1.796-1.722-3.221-1.722-1.331 0-2.415.563-3.22 1.66q-1.022 1.314-1.207 3.193zM92.806 25.865h-2.137l-1.177-3.695h-4.056l-1.115 3.695h-2.075l3.995-12.588h2.477zm-3.623-5.229-1.053-3.288c-.124-.344-.31-1.127-.62-2.38h-.03c-.124.533-.31 1.315-.589 2.38l-1.022 3.288zM102.843 16.785l-3.406 9.081h-1.951l-3.283-9.08h2.137l1.548 4.79c.248.814.465 1.566.65 2.286h.063c.154-.657.371-1.41.65-2.286l1.517-4.79zM110.086 25.864l-.155-1.033h-.062c-.619.846-1.487 1.253-2.632 1.253-1.611 0-2.757-1.128-2.757-2.662 0-2.255 1.92-3.413 5.234-3.413v-.157q0-1.785-1.858-1.785c-.898 0-1.672.22-2.354.69l-.402-1.316c.836-.532 1.858-.783 3.097-.783q3.53 0 3.53 3.758v3.35c0 .909.031 1.629.124 2.161zm-.279-4.509c-2.23 0-3.314.533-3.314 1.816 0 .94.589 1.41 1.363 1.41 1.022 0 1.951-.783 1.951-1.848zM116.187 15.282c-.651 0-1.177-.532-1.177-1.22 0-.69.526-1.19 1.207-1.19.682 0 1.239.5 1.208 1.19.031.75-.495 1.22-1.238 1.22m1.021 10.584h-1.981v-9.08h1.981zM122.748 25.865h-1.982V12.619h1.982zM131.234 25.864l-.155-1.033h-.062c-.619.846-1.486 1.253-2.632 1.253-1.61 0-2.756-1.128-2.756-2.662 0-2.255 1.92-3.413 5.233-3.413v-.157q0-1.785-1.858-1.785c-.898 0-1.672.22-2.353.69l-.403-1.316c.836-.532 1.858-.783 3.097-.783q3.53 0 3.53 3.758v3.35c0 .909.031 1.629.124 2.161h-1.765zm-.279-4.509c-2.229 0-3.313.533-3.313 1.816 0 .94.588 1.41 1.362 1.41 1.022 0 1.951-.783 1.951-1.848zM140.985 26.086c-1.27 0-2.23-.532-2.818-1.597h-.031l-.124 1.409h-1.703c.062-.72.062-1.566.062-2.442V12.652h2.013v5.48h.031c.587-1.002 1.547-1.503 2.849-1.503 2.167 0 3.685 1.879 3.685 4.603 0 2.787-1.673 4.854-3.964 4.854m-.403-7.891c-1.146 0-2.198 1.002-2.198 2.41v1.598c0 1.253.928 2.286 2.167 2.286 1.486 0 2.385-1.221 2.385-3.194 0-1.848-.929-3.1-2.354-3.1M149.906 25.865h-1.982V12.619h1.982zM160.789 21.825h-5.978c.032 1.722 1.178 2.693 2.819 2.693.898 0 1.703-.157 2.415-.438l.31 1.409c-.836.376-1.857.563-3.004.563-2.819 0-4.458-1.785-4.458-4.571 0-2.787 1.702-4.885 4.241-4.885 2.292 0 3.747 1.722 3.747 4.321-.031.345-.031.658-.092.908m-1.828-1.44c0-1.41-.712-2.38-1.981-2.38-1.146 0-2.044 1.002-2.169 2.38zM172.887 26.086c-2.632 0-4.336-1.973-4.336-4.666 0-2.818 1.735-4.791 4.491-4.791 2.57 0 4.335 1.879 4.335 4.666-.031 2.818-1.827 4.79-4.49 4.79m.061-8.017c-1.455 0-2.352 1.378-2.352 3.257s.929 3.225 2.352 3.225c1.425 0 2.354-1.472 2.354-3.256-.031-1.817-.96-3.226-2.354-3.226M188.062 25.865h-1.982v-5.23c0-1.597-.62-2.411-1.796-2.411s-2.014 1.033-2.014 2.223v5.418h-1.981v-6.482c0-.814-.031-1.66-.062-2.6h1.765l.093 1.41h.062c.527-.971 1.641-1.597 2.85-1.597 1.888 0 3.127 1.471 3.127 3.82zM201.128 18.318h-2.199v4.415c0 1.128.373 1.691 1.178 1.691.339 0 .65-.031.897-.094l.063 1.535c-.403.156-.899.219-1.549.219-1.579 0-2.509-.877-2.509-3.163V18.35h-1.3v-1.566h1.3v-1.66l1.951-.595v2.255h2.199v1.534zM211.691 25.865h-2.012v-5.167c0-1.628-.619-2.442-1.797-2.442-1.021 0-1.981.72-1.981 2.16v5.449h-2.012V12.619h2.012v5.449h.031c.619-1.002 1.548-1.472 2.694-1.472 1.889 0 3.065 1.503 3.065 3.883zM221.916 21.825h-6.009c.031 1.722 1.178 2.693 2.819 2.693.897 0 1.702-.157 2.415-.438l.31 1.409c-.836.376-1.858.563-3.004.563-2.817 0-4.459-1.785-4.459-4.571 0-2.787 1.703-4.885 4.241-4.885 2.293 0 3.748 1.722 3.748 4.321 0 .345-.031.658-.061.908m-1.828-1.44c0-1.41-.712-2.38-1.982-2.38-1.145 0-2.044 1.002-2.168 2.38z"/></svg>
